public/logos/6Y.svg

<?xml version="1.0" encoding="UTF-8"?>
<svg xmlns="http://www.w3.org/2000/svg" xmlns:xlink="http://www.w3.org/1999/xlink" width="176pt" height="29.02pt" viewBox="0 0 176 29.02" version="1.1">
<defs>
<clipPath id="clip1">
  <path d="M 18 17 L 25 17 L 25 29.019531 L 18 29.019531 Z M 18 17 "/>
</clipPath>
</defs>
<g id="surface1">
<path style=" stroke:none;fill-rule:nonzero;fill:rgb(94.702148%,31.417847%,18.919373%);fill-opacity:1;" d="M 169.175781 21.726562 L 165.273438 19.472656 C 165.273438 19.472656 163.40625 19.472656 162.171875 19.472656 C 163.964844 20.675781 167.167969 22.859375 167.167969 22.859375 L 162.171875 26.144531 L 165.050781 26.28125 C 165.050781 26.28125 167.574219 24.636719 168.769531 23.863281 C 169.65625 24.351562 173.261719 26.222656 173.261719 26.222656 L 176 26.21875 L 169.175781 21.726562 L 171.480469 21.742188 L 174.980469 19.472656 L 172.328125 19.472656 L 169.175781 21.726562 "/>
<path style=" stroke:none;fill-rule:nonzero;fill:rgb(16.595459%,7.769775%,7.733154%);fill-opacity:1;" d="M 72.445312 19.535156 L 67.914062 23.316406 L 62.839844 19.492188 L 60.679688 19.472656 L 60.742188 26.199219 L 63.125 26.199219 L 63.125 22.085938 C 63.125 22.085938 66.367188 24.597656 67.792969 25.722656 C 69.382812 24.476562 70.855469 23.316406 72.539062 21.992188 C 72.539062 23.53125 72.539062 24.867188 72.539062 26.195312 C 73.453125 26.195312 74.925781 26.195312 74.925781 26.195312 L 74.9375 19.535156 L 72.445312 19.535156 "/>
<path style=" stroke:none;fill-rule:nonzero;fill:rgb(16.595459%,7.769775%,7.733154%);fill-opacity:1;" d="M 106.898438 26.199219 C 106.898438 26.199219 103.949219 24.625 102.46875 23.855469 C 103.96875 23.882812 105.097656 23.410156 105.746094 22.183594 C 105.746094 21.65625 105.746094 21.6875 105.746094 21.058594 C 105.6875 19.800781 103.585938 19.472656 103.585938 19.472656 L 93.929688 19.472656 L 93.976562 26.207031 L 96.375 26.207031 L 96.375 23.839844 C 96.375 23.839844 98.238281 23.855469 98.949219 23.855469 C 100.503906 24.707031 103.355469 26.210938 103.355469 26.210938 L 106.898438 26.199219 "/>
<path style=" stroke:none;fill-rule:nonzero;fill:rgb(16.595459%,7.769775%,7.733154%);fill-opacity:1;" d="M 54.941406 24.792969 C 51.96875 24.859375 48.644531 24.71875 45.808594 24.785156 C 45.769531 24.785156 45.804688 26.199219 45.804688 26.199219 L 54.425781 26.171875 C 54.425781 26.171875 56.949219 26.355469 57.347656 25.449219 C 57.75 24.539062 58.445312 22.027344 55.03125 22.027344 C 54.613281 22.027344 54.195312 22.023438 53.78125 22.023438 C 52.003906 22.023438 50.222656 22.023438 48.441406 22.023438 C 48.441406 21.613281 48.441406 21.308594 48.441406 20.878906 C 51.34375 20.878906 54.179688 20.878906 57.113281 20.878906 C 57.078125 20.367188 57.054688 19.988281 57.019531 19.488281 C 54.1875 19.488281 51.460938 19.519531 48.734375 19.476562 C 47.613281 19.457031 46.640625 19.730469 45.8125 20.46875 C 45.8125 21.230469 45.8125 21.980469 45.8125 22.796875 C 45.605469 23.914062 54.941406 23.640625 54.941406 23.640625 C 54.941406 23.640625 54.941406 24.308594 54.941406 24.792969 "/>
<path style=" stroke:none;fill-rule:nonzero;fill:rgb(94.702148%,31.417847%,18.919373%);fill-opacity:1;" d="M 147.171875 19.472656 L 147.214844 26.222656 C 147.214844 26.222656 148.800781 26.222656 149.660156 26.222656 C 149.660156 24.699219 149.660156 23.253906 149.660156 21.773438 C 152.15625 23.09375 158.414062 26.222656 158.414062 26.222656 L 160.175781 26.199219 L 160.175781 19.472656 L 157.832031 19.472656 L 157.839844 23.945312 L 149.171875 19.472656 L 147.171875 19.472656 "/>
<path style=" stroke:none;fill-rule:nonzero;fill:rgb(16.595459%,7.769775%,7.733154%);fill-opacity:1;" d="M 83.039062 19.511719 C 81.046875 21.707031 79.089844 23.867188 76.960938 26.21875 C 77.960938 26.21875 78.703125 26.21875 79.695312 26.21875 C 80.300781 25.511719 81.03125 24.660156 81.714844 23.867188 C 82.300781 24.3125 82.710938 24.621094 83.136719 24.941406 C 84.699219 24.941406 86.234375 24.941406 87.683594 24.941406 C 88.238281 25.464844 88.710938 25.90625 89.058594 26.230469 C 90.046875 26.230469 90.851562 26.230469 91.851562 26.230469 C 89.664062 23.828125 85.503906 19.511719 85.503906 19.511719 C 85.503906 19.511719 83.933594 19.511719 83.039062 19.511719 "/>
<path style=" stroke:none;fill-rule:nonzero;fill:rgb(16.595459%,7.769775%,7.733154%);fill-opacity:1;" d="M 115.738281 26.210938 C 115.738281 24.242188 115.738281 22.503906 115.738281 20.792969 C 117.527344 20.792969 120.683594 20.792969 120.683594 20.792969 C 120.683594 20.792969 120.691406 19.433594 120.695312 19.492188 C 120.699219 19.554688 107.855469 19.429688 107.863281 19.492188 C 107.871094 19.554688 107.863281 20.820312 107.863281 20.820312 C 107.863281 20.820312 111.261719 20.824219 112.90625 20.824219 C 112.90625 22.625 112.90625 24.386719 112.90625 26.210938 C 113.828125 26.210938 114.621094 26.210938 115.738281 26.210938 "/>
<path style=" stroke:none;fill-rule:nonzero;fill:rgb(94.702148%,31.417847%,18.919373%);fill-opacity:1;" d="M 123.535156 26.214844 L 133.859375 26.167969 L 133.859375 24.613281 L 125.949219 24.625 C 125.949219 24.625 125.921875 21.167969 125.921875 19.472656 C 125.121094 19.472656 123.535156 19.472656 123.535156 19.472656 L 123.535156 26.214844 "/>
<path style=" stroke:none;fill-rule:nonzero;fill:rgb(94.702148%,31.417847%,18.919373%);fill-opacity:1;" d="M 137.472656 23.453125 C 137.519531 24.535156 137.554688 25.285156 137.59375 26.164062 C 138.488281 26.164062 139.207031 26.164062 140.050781 26.164062 C 140.050781 25.570312 140.050781 23.363281 140.050781 22.875 C 138.640625 21.992188 134.046875 19.472656 134.046875 19.472656 L 131.011719 19.472656 C 131.011719 19.472656 135.539062 22.265625 137.472656 23.453125 "/>
<path style=" stroke:none;fill-rule:nonzero;fill:rgb(94.702148%,31.417847%,18.919373%);fill-opacity:1;" d="M 139.476562 21.734375 L 140.714844 22.425781 L 145.65625 19.472656 L 142.605469 19.472656 L 139.476562 21.734375 "/>
<path style=" stroke:none;fill-rule:evenodd;fill:rgb(100%,100%,100%);fill-opacity:1;" d="M 96.359375 20.925781 C 96.359375 20.925781 100.902344 20.925781 103.117188 20.925781 C 103.117188 21.367188 103.117188 21.9375 103.117188 22.398438 C 100.925781 22.398438 96.359375 22.398438 96.359375 22.398438 L 96.359375 20.925781 "/>
<path style=" stroke:none;fill-rule:evenodd;fill:rgb(100%,100%,100%);fill-opacity:1;" d="M 84.273438 20.980469 C 85.007812 21.804688 85.664062 22.546875 86.410156 23.382812 C 84.996094 23.382812 83.703125 23.382812 82.21875 23.382812 C 82.921875 22.5625 83.542969 21.835938 84.273438 20.980469 "/>
<path style=" stroke:none;fill-rule:nonzero;fill:rgb(16.595459%,7.769775%,7.733154%);fill-opacity:1;" d="M 10.832031 6.703125 C 11.160156 6.921875 41.175781 17.257812 41.175781 17.257812 L 8.519531 17.257812 L 13.6875 12.527344 L 10.832031 6.703125 "/>
<path style=" stroke:none;fill-rule:nonzero;fill:rgb(59.106445%,8.79364%,20.39032%);fill-opacity:1;" d="M 0 3.324219 L 16.601562 8.679688 L 20.78125 13.296875 L 8.6875 17.257812 L 13.632812 12.089844 L 0 3.324219 "/>
<path style=" stroke:none;fill-rule:nonzero;fill:rgb(59.106445%,8.79364%,20.39032%);fill-opacity:1;" d="M 20.011719 5.164062 C 19.789062 5.492188 24.957031 -0.00390625 24.957031 -0.00390625 L 24.957031 5.820312 L 20.011719 5.164062 "/>
<g clip-path="url(#clip1)" clip-rule="nonzero">
<path style=" stroke:none;fill-rule:nonzero;fill:rgb(59.106445%,8.79364%,20.39032%);fill-opacity:1;" d="M 18.582031 17.257812 L 24.847656 17.257812 L 24.847656 29.019531 Z M 18.582031 17.257812 "/>
</g>
<path style=" stroke:none;fill-rule:nonzero;fill:rgb(94.760132%,32.614136%,10.47821%);fill-opacity:1;" d="M 24.847656 11.601562 L 33.054688 8.703125 L 33.390625 8.585938 L 49.476562 2.910156 L 36.390625 12.308594 L 33.203125 9.339844 L 24.847656 17.257812 L 24.847656 11.601562 "/>
</g>
</svg>

<svg xmlns="http://www.w3.org/2000/svg" width="176pt" height="38.693" viewBox="0 0 176 29.02"><defs><clipPath id="a"><path d="M18 17h7v12.02h-7Zm0 0"/></clipPath></defs><path d="m169.176 21.727-3.903-2.254h-3.101c1.793 1.203 4.996 3.386 4.996 3.386l-4.996 3.286 2.879.136s2.523-1.644 3.719-2.418c.886.489 4.492 2.36 4.492 2.36l2.738-.004zl2.304.015 3.5-2.27h-2.652z" style="stroke:none;fill-rule:nonzero;fill:#f15030;fill-opacity:1"/><path d="m72.445 19.535-4.53 3.781-5.075-3.824-2.16-.02.062 6.727h2.383v-4.113s3.242 2.512 4.668 3.637c1.59-1.246 3.062-2.407 4.746-3.73v4.202h2.387l.011-6.66zM106.898 26.2s-2.949-1.575-4.43-2.345c1.5.028 2.63-.445 3.278-1.671v-1.125c-.058-1.258-2.16-1.586-2.16-1.586H93.93l.047 6.734h2.398V23.84s1.863.015 2.574.015c1.555.852 4.406 2.356 4.406 2.356zM54.941 24.793c-2.972.066-6.296-.074-9.132-.008-.04 0-.004 1.414-.004 1.414l8.62-.027s2.524.183 2.923-.723c.402-.91 1.097-3.422-2.317-3.422q-.628-.002-1.25-.004h-5.34V20.88h8.672c-.035-.512-.058-.89-.093-1.39-2.833 0-5.56.03-8.286-.012-1.12-.02-2.093.253-2.922.992v2.328c-.207 1.117 9.13.844 9.13.844z" style="stroke:none;fill-rule:nonzero;fill:#2a1414;fill-opacity:1"/><path d="m147.172 19.473.043 6.75h2.445v-4.45c2.496 1.32 8.754 4.45 8.754 4.45l1.762-.024v-6.726h-2.344l.008 4.472-8.668-4.472z" style="stroke:none;fill-rule:nonzero;fill:#f15030;fill-opacity:1"/><path d="M83.04 19.512c-1.993 2.195-3.95 4.355-6.08 6.707h2.735a976 976 0 0 1 2.02-2.352c.586.445.996.754 1.422 1.074h4.547c.554.524 1.027.965 1.375 1.29h2.793c-2.188-2.403-6.348-6.72-6.348-6.72zM115.738 26.21v-5.417h4.946s.007-1.36.011-1.3c.004.062-12.84-.063-12.832 0 .008.062 0 1.327 0 1.327s3.399.004 5.043.004v5.387z" style="stroke:none;fill-rule:nonzero;fill:#2a1414;fill-opacity:1"/><path d="m123.535 26.215 10.324-.047v-1.555l-7.91.012s-.027-3.457-.027-5.152h-2.387zM137.473 23.453l.12 2.711h2.458v-3.289c-1.41-.883-6.004-3.402-6.004-3.402h-3.035s4.527 2.793 6.46 3.98M139.477 21.734l1.238.692 4.941-2.953h-3.05z" style="stroke:none;fill-rule:nonzero;fill:#f15030;fill-opacity:1"/><path d="M96.36 20.926h6.757v1.472H96.36zM84.273 20.98c.735.825 1.391 1.567 2.137 2.403H82.22c.703-.82 1.324-1.547 2.054-2.403" style="stroke:none;fill-rule:evenodd;fill:#fff;fill-opacity:1"/><path d="M10.832 6.703c.328.219 30.344 10.555 30.344 10.555H8.52l5.168-4.73z" style="stroke:none;fill-rule:nonzero;fill:#2a1414;fill-opacity:1"/><path d="M0 3.324 16.602 8.68l4.18 4.617-12.094 3.96 4.945-5.167zM20.012 5.164c-.223.328 4.945-5.168 4.945-5.168V5.82z" style="stroke:none;fill-rule:nonzero;fill:#971634;fill-opacity:1"/><g clip-path="url(#a)"><path d="M18.582 17.258h6.266V29.02Zm0 0" style="stroke:none;fill-rule:nonzero;fill:#971634;fill-opacity:1"/></g><path d="m24.848 11.602 8.207-2.899.336-.117L49.477 2.91 36.39 12.31l-3.188-2.97-8.355 7.919z" style="stroke:none;fill-rule:nonzero;fill:#f2531b;fill-opacity:1"/></svg>
